assets/stickers/shapes/stickers/imgly_sticker_shapes_badge_13.svg

<svg height="1718" viewBox="0 0 2000 1718" width="2000" xmlns="http://www.w3.org/2000/svg"><path d="m2000 499.498c0-275.856-225.687-499.485-504.082-499.485-247.414 0-453.183 176.628-495.918 409.567-42.74-232.94-248.506-409.57-495.92-409.57-278.395.001-504.08 223.63-504.08 499.488 0 9.815.315 19.558.881 29.232h-.75c.864 15.653 2.862 31.627 5.848 47.864 10.483 67.043 34.438 129.665 69.014 185.101 232.965 438.387 926.001 956.294 926.001 956.294s674.505-506.048 914.173-941.114c53.573-79.349 84.833-174.741 84.833-277.377z" fill="#fff" transform=""/></svg>

<?xml version="1.0" encoding="UTF-8"?>
<svg width="2000px" height="1718px" viewBox="0 0 2000 1718" version="1.1" xmlns="http://www.w3.org/2000/svg" xmlns:xlink="http://www.w3.org/1999/xlink">
    <!-- Generator: Sketch 43.1 (39012) - http://www.bohemiancoding.com/sketch -->
    <title>imgly_sticker_shapes_badge_13</title>
    <desc>Created with Sketch.</desc>
    <defs></defs>
    <g id="Page-1" stroke="none" stroke-width="1" fill="none" fill-rule="evenodd">
        <g id="Artboard" transform="translate(-11691.000000, -1135.000000)" fill-rule="nonzero" fill="#FFFFFF">
            <g id="badge_13" transform="translate(11691.000000, 1135.000000)">
                <path d="M2000,499.498 C2000,223.642 1774.313,0.013 1495.918,0.013 C1248.504,0.013 1042.735,176.641 1000,409.58 C957.26,176.64 751.494,0.01 504.08,0.01 C225.685,0.011 0,223.64 0,499.498 C0,509.313 0.315,519.056 0.881,528.73 L0.131,528.73 C0.995,544.383 2.993,560.357 5.979,576.594 C16.462,643.637 40.417,706.259 74.993,761.695 C307.958,1200.082 1000.994,1717.989 1000.994,1717.989 C1000.994,1717.989 1675.499,1211.941 1915.167,776.875 C1968.74,697.526 2000,602.134 2000,499.498 Z" id="Shape"></path>
            </g>
        </g>
    </g>
</svg>
